X:375
T:Entemediu de Fux (XA 25)
R:Marcha
C:Tradicional
S:Msica Tradicional Asturiana, (C) Tello & Tito. Asturies, 2001.
S:http://pagina.de/MusTradAst <telloytito@asturies.org>
A:Asturies
Z:Mtodu de Xuacu Amieva 25
M:3/8
L:1/8
Q:3/8=66
K:C
GG
|c>BA|~GFE|G F/E/ D-|DGA|B>AG|~FEG|F ~E/D/ C-|CGG|
|c>BA|~GFE|G F/E/ D-|D G/A/G/A/|B>AG|~FEG|F ~E/D/ C-|C.GG|
|A/G/F/G/ A|A.FF|G/F/E/F/ G-|G.EE|F/E/D/E/ F|F G/F/E/F/|G2 ~G|C.GG|
|A/G/F/G/ A|A.FF|G/F/E/F/ G-|G.EE|F/E/D/E/ F|F G/F/E/D/|C3-|C z2|
